X:41
T: Es war einmal ein Zimmergesell (Band 1), S. 127
N: P0815
O: Lothringen
S: PINCK, Louis: Verklingende Weisen, Bd 1, Metz 1928]
R: Beischlaf, Standesunterschied, Verleumdung]
M: 6/8
L: 1/8
K: F
c | A2BG2A | FFGA2
F | GABcBc | G4-G
G | BBBBcd | GABc2
F | BAGBAG | F4-F

